icons/git-fork-24.svg

<svg width="24" height="24" viewBox="0 0 24 24" xmlns="http://www.w3.org/2000/svg">
  <path fill-rule="evenodd" clip-rule="evenodd" d="M12 21C11.0335 21 10.25 20.2165 10.25 19.25C10.25 18.2835 11.0335 17.5 12 17.5C12.9665 17.5 13.75 18.2835 13.75 19.25C13.75 20.2165 12.9665 21 12 21ZM8.75 19.25C8.75 21.0449 10.2051 22.5 12 22.5C13.7949 22.5 15.25 21.0449 15.25 19.25C15.25 17.4551 13.7949 16 12 16C10.2051 16 8.75 17.4551 8.75 19.25Z"/>
  <path fill-rule="evenodd" clip-rule="evenodd" d="M5.75 6.5C4.7835 6.5 4 5.7165 4 4.75C4 3.7835 4.7835 3 5.75 3C6.7165 3 7.5 3.7835 7.5 4.75C7.5 5.7165 6.7165 6.5 5.75 6.5ZM2.5 4.75C2.5 6.54493 3.95507 8 5.75 8C7.54493 8 9 6.54493 9 4.75C9 2.95507 7.54493 1.5 5.75 1.5C3.95507 1.5 2.5 2.95507 2.5 4.75Z"/>
  <path fill-rule="evenodd" clip-rule="evenodd" d="M18.25 6.5C17.2835 6.5 16.5 5.7165 16.5 4.75C16.5 3.7835 17.2835 3 18.25 3C19.2165 3 20 3.7835 20 4.75C20 5.7165 19.2165 6.5 18.25 6.5ZM15 4.75C15 6.54493 16.4551 8 18.25 8C20.0449 8 21.5 6.54493 21.5 4.75C21.5 2.95507 20.0449 1.5 18.25 1.5C16.4551 1.5 15 2.95507 15 4.75Z"/>
  <path fill-rule="evenodd" clip-rule="evenodd" d="M6.5 7.75V8.75C6.5 9.99264 7.50736 11 8.75 11H15.25C16.4926 11 17.5 9.99264 17.5 8.75V7.75H19V8.75C19 10.8211 17.3211 12.5 15.25 12.5H8.75C6.67893 12.5 5 10.8211 5 8.75V7.75H6.5Z"/>
  <path fill-rule="evenodd" clip-rule="evenodd" d="M11.25 16.25V11.25H12.75V16.25H11.25Z"/>
</svg>

<svg xmlns="http://www.w3.org/2000/svg" width="24" height="24" viewBox="0 0 24 24"><path fill-rule="evenodd" d="M12 21a1.75 1.75 0 110-3.5 1.75 1.75 0 010 3.5zm-3.25-1.75a3.25 3.25 0 106.5 0 3.25 3.25 0 00-6.5 0zm-3-12.75a1.75 1.75 0 110-3.5 1.75 1.75 0 010 3.5zM2.5 4.75a3.25 3.25 0 106.5 0 3.25 3.25 0 00-6.5 0zM18.25 6.5a1.75 1.75 0 110-3.5 1.75 1.75 0 010 3.5zM15 4.75a3.25 3.25 0 106.5 0 3.25 3.25 0 00-6.5 0z"/><path fill-rule="evenodd" d="M6.5 7.75v1A2.25 2.25 0 008.75 11h6.5a2.25 2.25 0 002.25-2.25v-1H19v1a3.75 3.75 0 01-3.75 3.75h-6.5A3.75 3.75 0 015 8.75v-1h1.5z"/><path fill-rule="evenodd" d="M11.25 16.25v-5h1.5v5h-1.5z"/></svg>
